src/assets/icons/payview/wallet.svg

<svg width="48" height="48" viewBox="0 0 48 48" fill="none" xmlns="http://www.w3.org/2000/svg">
<path d="M35.4 15.8L33.2 10.2C33.1 9.9 32.9 9.7 32.6 9.6C32.3 9.5 32.1 9.5 31.8 9.6L25.3 12.7C25.3 12.6 25.3 12.5 25.2 12.4L23.4 9.4C23.3 9.3 23 9.1 22.8 9C22.5 9 22.2 9 22 9.2L12.5 15.6C12.4 15.7 12.3 15.8 12.2 15.9C10.3 16.6 9 18.4 9 20.6V33.6C9 36.4 11.2 38.6 14 38.6H34C36.8 38.6 39 36.4 39 33.6V31.6V25.6V20.6C39 18.3 37.5 16.4 35.4 15.8ZM33.1 15.6H24.1L31.7 12L33.1 15.6ZM22.2 11.4L23.4 13.5L23.5 13.6L19.5 15.5H16.2L22.2 11.4ZM34 36.6H14C12.3 36.6 11 35.2 11 33.6V20.6C11 18.9 12.4 17.6 14 17.6H34C35.7 17.6 37 19 37 20.6V24.6H31C28.8 24.6 27 26.4 27 28.6C27 30.8 28.8 32.6 31 32.6H37V33.6C37 35.2 35.6 36.6 34 36.6ZM37 30.6H31C29.9 30.6 29 29.7 29 28.6C29 27.5 29.9 26.6 31 26.6H37V30.6Z" fill="#253238"/>
<path d="M30.3 27.7998C30.2 27.8998 30.1 27.9998 30.1 28.0998C30 28.2998 30 28.3998 30 28.5998C30 28.7998 30 28.8998 30.1 28.9998C30.1 29.0998 30.2 29.1998 30.3 29.2998C30.4 29.3998 30.5 29.4998 30.6 29.4998C30.7 29.4998 30.8 29.5998 31 29.5998C31.3 29.5998 31.5 29.4998 31.7 29.2998C31.8 29.1998 31.9 29.0998 31.9 28.9998C32 28.8998 32 28.7998 32 28.5998C32 28.3998 32 28.2998 31.9 28.1998C31.8 28.0998 31.8 27.9998 31.7 27.8998C31.6 27.8998 31.6 27.7998 31.6 27.7998C31.5 27.7998 31.5 27.6998 31.4 27.6998C31.3 27.6998 31.3 27.6998 31.2 27.5998C30.9 27.4998 30.5 27.5998 30.3 27.7998Z" fill="#253238"/>
</svg>

<svg width="48" height="48" fill="none" xmlns="http://www.w3.org/2000/svg"><path d="m35.4 15.8-2.2-5.6c-.1-.3-.3-.5-.6-.6-.3-.1-.5-.1-.8 0l-6.5 3.1c0-.1 0-.2-.1-.3l-1.8-3c-.1-.1-.4-.3-.6-.4-.3 0-.6 0-.8.2l-9.5 6.4-.3.3c-1.9.7-3.2 2.5-3.2 4.7v13c0 2.8 2.2 5 5 5h20c2.8 0 5-2.2 5-5v-13c0-2.3-1.5-4.2-3.6-4.8Zm-2.3-.2h-9l7.6-3.6 1.4 3.6Zm-10.9-4.2 1.2 2.1.1.1-4 1.9h-3.3l6-4.1ZM34 36.6H14c-1.7 0-3-1.4-3-3v-13c0-1.7 1.4-3 3-3h20c1.7 0 3 1.4 3 3v4h-6c-2.2 0-4 1.8-4 4s1.8 4 4 4h6v1c0 1.6-1.4 3-3 3Zm3-6h-6c-1.1 0-2-.9-2-2s.9-2 2-2h6v4Z" fill="#253238"/><path d="M30.3 27.8c-.1.1-.2.2-.2.3-.1.2-.1.3-.1.5s0 .3.1.4c0 .1.1.2.2.3.1.1.2.2.3.2.1 0 .2.1.4.1.3 0 .5-.1.7-.3.1-.1.2-.2.2-.3.1-.1.1-.2.1-.4s0-.3-.1-.4c-.1-.1-.1-.2-.2-.3-.1 0-.1-.1-.1-.1-.1 0-.1-.1-.2-.1s-.1 0-.2-.1c-.3-.1-.7 0-.9.2Z" fill="#253238"/></svg>
